X: 1
T: Bourr\'ee des Moutons
O: Rodney Miller Band
Z: John Chambers <jc:trillian.mit.edu> http://trillian.mit.edu/~jc/music/
M: C
L: 1/4
K: D
|: "D"a>g fd | "Em"ef/g/ "A7"fg | "D"a>g fd | "Em"ef/g/ "A"e2 :|
|: "Bm"f>g fe | fd B2 | "G"ed/c/ dB | "Em"ed/c/ "A"de |
|  "Bm"f>g fe | fd B2 | "G"ed/c/ dg | "A7"ec "D"d2 :|
